web/workspace/public/assets/icons/calculate.svg

<svg xmlns="http://www.w3.org/2000/svg" width="30" height="30" viewBox="0 0 30 30"><path d="M11 20H5v5h6v-5zm-2 3H7v-1h2v1zm3 2h6v-5h-6v5zm2-3h2v1h-2v-1zm5 3h6v-5h-6v5zm2-3h2v1h-2v-1zm-10-8H5v5h6v-5zm-2 3H7v-1h2v1zm3 2h6v-5h-6v5zm2-3h2v1h-2v-1zm5 3h6v-5h-6v5zm2-3h2v1h-2v-1zM1 1v28h28V1H1zm26 26H3V3h24v24zM25 5H5v8h20V5zm-2 6H7V7h16v4zm-1-3h-4v2h4V8z"/></svg>

<?xml version="1.0" encoding="iso-8859-1"?>
<!-- Generator: Adobe Illustrator 14.0.0, SVG Export Plug-In . SVG Version: 6.00 Build 43363)  -->
<!DOCTYPE svg PUBLIC "-//W3C//DTD SVG 1.1//EN" "http://www.w3.org/Graphics/SVG/1.1/DTD/svg11.dtd">
<svg version="1.1" id="Layer_1" xmlns="http://www.w3.org/2000/svg" xmlns:xlink="http://www.w3.org/1999/xlink" x="0px" y="0px"
	 width="30px" height="30px" viewBox="0 0 30 30" style="enable-background:new 0 0 30 30;" xml:space="preserve">
<path d="M11,20H5v5h6V20z M9,23H7v-1h2V23z M12,25h6v-5h-6V25z M14,22h2v1h-2V22z M19,25h6v-5h-6V25z M21,22h2v1h-2V22z M11,14H5v5
	h6V14z M9,17H7v-1h2V17z M12,19h6v-5h-6V19z M14,16h2v1h-2V16z M19,19h6v-5h-6V19z M21,16h2v1h-2V16z M1,1v28h28V1H1z M27,27H3V3h24
	V27z M25,5H5v8h20V5z M23,11H7V7h16V11z M22,8h-4v2h4V8z"/>
</svg>
